images/sponsors/intercom.svg

<svg width="347" height="125" fill="none" xmlns="http://www.w3.org/2000/svg"><path fill-rule="evenodd" clip-rule="evenodd" d="M128.935 73.604c0 1.272-.932 2.317-2.258 2.317-1.29 0-2.222-1.048-2.222-2.317V51.516c0-1.271.932-2.317 2.258-2.317 1.29 0 2.222 1.048 2.222 2.317v22.088zm28.957-22.088V71.7c0 2.729-1.397 4.262-3.619 4.262h-.178c-2.114 0-3.119-1.271-4.014-3.14l-4.516-9.157-4.014-9.455.108 9.157.036 10.203c0 1.27-.931 2.316-2.258 2.316-1.29 0-2.221-1.047-2.221-2.317V53.386c0-2.505 1.397-4.262 3.835-4.262h.179c2.258 0 3.189 1.272 4.086 3.14l4.443 9.084 3.799 8.821-.107-8.447-.036-10.202c0-1.272.931-2.317 2.258-2.317 1.287-.003 2.219 1.043 2.219 2.314zm17.956 22.053c0 1.27-.931 2.316-2.258 2.316-1.289 0-2.221-1.047-2.221-2.317V53.573h-5.555c-1.146 0-2.077-.897-2.077-2.205 0-1.271.931-2.166 2.077-2.166h15.589c1.146 0 2.078.897 2.078 2.205 0 1.271-.932 2.166-2.078 2.166h-5.555v19.995zm13.475-.748V52.078c0-1.943 1.039-3.026 2.939-2.952h12.902c1.146 0 2.077.933 2.077 2.204 0 1.272-.931 2.167-2.077 2.167h-11.398v6.429h10.071c1.112 0 2.007.86 2.007 2.093s-.895 2.092-2.007 2.092h-10.071v7.4h11.398c1.146 0 2.077.934 2.077 2.205 0 1.272-.931 2.167-2.077 2.167h-13.01c-1.863.002-2.901-1.081-2.831-3.062zm42.327 3.176c1.254-.674 1.649-2.057 1.039-3.14l-4.48-8.296c3.692-.747 5.843-3.588 5.843-7.438 0-4.035-2.436-7.997-8.279-7.997h-8.493c-1.899-.074-2.938 1.01-2.938 2.952v21.529c0 1.269.931 2.316 2.221 2.316 1.327 0 2.258-1.045 2.258-2.316l-.036-8.148h4.73l4.982 9.605c.607 1.083 1.934 1.569 3.153.933zm-5.772-14.764h-7.096v-7.738h7.06c2.365 0 3.692 1.569 3.692 3.85 0 2.28-1.254 3.888-3.656 3.888zm17.418 12.671c-2.687-2.505-3.906-6.428-3.906-11.362 0-4.971 1.183-8.857 3.836-11.324 1.648-1.495 3.869-2.504 7.096-2.504 2.831 0 5.018.674 6.666 2.13 1.434 1.196 2.473 2.88 3.082 5.234.322 1.233-.502 2.467-1.863 2.728-1.29.224-2.328-.635-2.723-1.868-.43-1.196-1.005-2.055-1.685-2.655-.932-.86-2.078-1.234-3.585-1.234-1.612 0-3.011.486-4.05 1.57-1.505 1.569-2.151 4.373-2.151 7.923 0 3.514.61 6.317 2.187 7.886 1.039 1.083 2.402 1.569 3.978 1.569 1.648 0 2.902-.448 3.943-1.457a5.91 5.91 0 0 0 1.326-1.981c.466-1.16 1.434-2.02 2.687-1.72 1.254.3 2.044 1.57 1.649 2.803-.646 2.055-1.756 3.7-3.261 4.822-1.648 1.233-3.691 1.869-6.271 1.869-3.297 0-5.377-1.01-6.955-2.429zm32.902-25.19c-7.778 0-11.075 5.457-11.075 13.828 0 8.634 3.263 13.829 11.075 13.829 7.669 0 11.039-5.195 11.039-13.829 0-8.521-3.333-13.828-11.039-13.828zm-.036 4.373c4.265 0 6.486 3.1 6.486 9.455 0 6.353-2.258 9.455-6.486 9.455-4.265 0-6.416-3.1-6.416-9.455 0-6.352 2.222-9.455 6.416-9.455zM322 73.569c0 1.272-.932 2.317-2.258 2.317-1.29 0-2.222-1.047-2.222-2.317V63.552l.108-9.755-3.119 9.905-3.153 9.755c-.536 1.719-1.648 2.392-3.046 2.392-1.47 0-2.545-.71-3.118-2.428l-3.226-9.717-2.975-9.755.107 9.605v10.017c0 1.271-.932 2.317-2.258 2.317-1.29 0-2.221-1.048-2.221-2.317V53.576c0-2.767 1.433-4.374 3.942-4.374 2.366 0 3.692 1.307 4.443 3.7l3.297 10.202 2.007 6.953 2.043-6.953 3.297-10.202c.754-2.393 2.044-3.7 4.409-3.7 2.509 0 3.906 1.569 3.906 4.374L322 73.568z" fill="#000"/><path d="M88.282 66.36a2.57 2.57 0 0 1-.712 1.783 2.388 2.388 0 0 1-1.718.739 2.388 2.388 0 0 1-1.72-.739 2.57 2.57 0 0 1-.711-1.782V43.84c0-.67.256-1.31.712-1.783a2.388 2.388 0 0 1 1.719-.739c.644 0 1.263.266 1.718.739a2.57 2.57 0 0 1 .712 1.782v22.52zm-.843 15.605c-.322.333-9.362 8.146-25.936 8.146-16.574 0-25.554-7.771-25.936-8.104a2.465 2.465 0 0 1-.583-.758 2.55 2.55 0 0 1 .302-2.742 2.402 2.402 0 0 1 1.654-.865c.64-.051 1.273.163 1.761.594.14.104 8.217 6.896 22.782 6.896s22.701-6.834 22.782-6.896a2.413 2.413 0 0 1 1.77-.588 2.44 2.44 0 0 1 1.665.859c.41.496.614 1.14.57 1.79a2.513 2.513 0 0 1-.811 1.689l-.02-.021zM34.703 43.84c.037-.67.328-1.3.81-1.748a2.399 2.399 0 0 1 1.762-.648c.6.035 1.165.3 1.588.742.423.443.673 1.032.702 1.654v22.48c0 .668-.256 1.309-.712 1.782a2.387 2.387 0 0 1-1.719.738 2.388 2.388 0 0 1-1.719-.738 2.569 2.569 0 0 1-.712-1.783V43.84zm12.195-5c.036-.67.327-1.3.809-1.748a2.399 2.399 0 0 1 1.762-.648c.6.035 1.166.3 1.589.742.423.443.673 1.032.701 1.654v33.333a2.57 2.57 0 0 1-.712 1.783 2.388 2.388 0 0 1-1.718.738 2.388 2.388 0 0 1-1.72-.738 2.57 2.57 0 0 1-.711-1.783V38.84zm12.254-1.25c0-.669.256-1.31.712-1.782a2.388 2.388 0 0 1 1.72-.739c.644 0 1.262.266 1.718.739.456.472.712 1.114.712 1.782v36.25c0 .669-.256 1.31-.712 1.782a2.387 2.387 0 0 1-1.719.739 2.388 2.388 0 0 1-1.719-.739 2.569 2.569 0 0 1-.712-1.782V37.59zm12.054 1.25c0-.669.256-1.31.712-1.782a2.388 2.388 0 0 1 1.72-.739c.644 0 1.262.266 1.718.739.456.472.712 1.114.712 1.782v33.333a2.57 2.57 0 0 1-.712 1.783 2.388 2.388 0 0 1-1.719.738 2.388 2.388 0 0 1-1.719-.738 2.57 2.57 0 0 1-.712-1.783V38.84zm17.74-13.75H34.14a8.795 8.795 0 0 0-3.484.695 9.06 9.06 0 0 0-2.962 2.026 9.441 9.441 0 0 0-1.986 3.049A9.718 9.718 0 0 0 25 34.465v56.25a9.718 9.718 0 0 0 .709 3.605 9.441 9.441 0 0 0 1.986 3.049 9.06 9.06 0 0 0 2.962 2.026 8.8 8.8 0 0 0 3.484.695h54.804a8.8 8.8 0 0 0 3.48-.693 9.06 9.06 0 0 0 2.959-2.02 9.442 9.442 0 0 0 1.988-3.042 9.719 9.719 0 0 0 .714-3.6v-56.27a9.72 9.72 0 0 0-.706-3.6 9.444 9.444 0 0 0-1.982-3.046 9.064 9.064 0 0 0-2.954-2.028 8.797 8.797 0 0 0-3.478-.7" fill="#000"/></svg>

<?xml version="1.0" encoding="UTF-8" standalone="no"?>
<!DOCTYPE svg PUBLIC "-//W3C//DTD SVG 1.1//EN" "http://www.w3.org/Graphics/SVG/1.1/DTD/svg11.dtd">
<svg width="297px" height="76px" viewBox="0 0 297 76" version="1.1" xmlns="http://www.w3.org/2000/svg" xmlns:xlink="http://www.w3.org/1999/xlink" xml:space="preserve" xmlns:serif="http://www.serif.com/" style="fill-rule:evenodd;clip-rule:evenodd;stroke-linejoin:round;stroke-miterlimit:2;">
    <g transform="matrix(1,0,0,1,-25,-25.0898)">
        <path d="M128.935,73.604C128.935,74.876 128.003,75.921 126.677,75.921C125.387,75.921 124.455,74.873 124.455,73.604L124.455,51.516C124.455,50.245 125.387,49.199 126.713,49.199C128.003,49.199 128.935,50.247 128.935,51.516L128.935,73.604ZM157.892,51.516L157.892,71.7C157.892,74.429 156.495,75.962 154.273,75.962L154.095,75.962C151.981,75.962 150.976,74.691 150.081,72.822L145.565,63.665L141.551,54.21L141.659,63.367L141.695,73.57C141.695,74.84 140.764,75.886 139.437,75.886C138.147,75.886 137.216,74.839 137.216,73.569L137.216,53.386C137.216,50.881 138.613,49.124 141.051,49.124L141.23,49.124C143.488,49.124 144.419,50.396 145.316,52.264L149.759,61.348L153.558,70.169L153.451,61.722L153.415,51.52C153.415,50.248 154.346,49.203 155.673,49.203C156.96,49.2 157.892,50.246 157.892,51.517L157.892,51.516ZM175.848,73.569C175.848,74.839 174.917,75.885 173.59,75.885C172.301,75.885 171.369,74.838 171.369,73.568L171.369,53.573L165.814,53.573C164.668,53.573 163.737,52.676 163.737,51.368C163.737,50.097 164.668,49.202 165.814,49.202L181.403,49.202C182.549,49.202 183.481,50.099 183.481,51.407C183.481,52.678 182.549,53.573 181.403,53.573L175.848,53.573L175.848,73.569ZM189.323,72.821L189.323,52.078C189.323,50.135 190.362,49.052 192.262,49.126L205.164,49.126C206.31,49.126 207.241,50.059 207.241,51.33C207.241,52.602 206.31,53.497 205.164,53.497L193.766,53.497L193.766,59.926L203.837,59.926C204.949,59.926 205.844,60.786 205.844,62.019C205.844,63.252 204.949,64.111 203.837,64.111L193.766,64.111L193.766,71.511L205.164,71.511C206.31,71.511 207.241,72.445 207.241,73.716C207.241,74.988 206.31,75.883 205.164,75.883L192.154,75.883C190.291,75.885 189.253,74.802 189.323,72.821ZM231.65,75.997C232.904,75.323 233.299,73.94 232.689,72.857L228.209,64.561C231.901,63.814 234.052,60.973 234.052,57.123C234.052,53.088 231.616,49.126 225.773,49.126L217.28,49.126C215.381,49.052 214.342,50.136 214.342,52.078L214.342,73.607C214.342,74.876 215.273,75.923 216.563,75.923C217.89,75.923 218.821,74.878 218.821,73.607L218.785,65.459L223.515,65.459L228.497,75.064C229.104,76.147 230.431,76.633 231.65,75.997ZM225.878,61.233L218.782,61.233L218.782,53.495L225.842,53.495C228.207,53.495 229.534,55.064 229.534,57.345C229.534,59.625 228.28,61.233 225.878,61.233ZM243.296,73.904C240.609,71.399 239.39,67.476 239.39,62.542C239.39,57.571 240.573,53.685 243.226,51.218C244.874,49.723 247.095,48.714 250.322,48.714C253.153,48.714 255.34,49.388 256.988,50.844C258.422,52.04 259.461,53.724 260.07,56.078C260.392,57.311 259.568,58.545 258.207,58.806C256.917,59.03 255.879,58.171 255.484,56.938C255.054,55.742 254.479,54.883 253.799,54.283C252.867,53.423 251.721,53.049 250.214,53.049C248.602,53.049 247.203,53.535 246.164,54.619C244.659,56.188 244.013,58.992 244.013,62.542C244.013,66.056 244.623,68.859 246.2,70.428C247.239,71.511 248.602,71.997 250.178,71.997C251.826,71.997 253.08,71.549 254.121,70.54C254.693,69.977 255.144,69.303 255.447,68.559C255.913,67.399 256.881,66.539 258.134,66.839C259.388,67.139 260.178,68.409 259.783,69.642C259.137,71.697 258.027,73.342 256.522,74.464C254.874,75.697 252.831,76.333 250.251,76.333C246.954,76.333 244.874,75.323 243.296,73.904ZM276.198,48.714C268.42,48.714 265.123,54.171 265.123,62.542C265.123,71.176 268.386,76.371 276.198,76.371C283.867,76.371 287.237,71.176 287.237,62.542C287.237,54.021 283.904,48.714 276.198,48.714ZM276.162,53.087C280.427,53.087 282.648,56.187 282.648,62.542C282.648,68.895 280.39,71.997 276.162,71.997C271.897,71.997 269.746,68.897 269.746,62.542C269.746,56.19 271.968,53.087 276.162,53.087ZM322,73.569C322,74.841 321.068,75.886 319.742,75.886C318.452,75.886 317.52,74.839 317.52,73.569L317.52,63.552L317.628,53.797L314.509,63.702L311.356,73.457C310.82,75.176 309.708,75.849 308.31,75.849C306.84,75.849 305.765,75.139 305.192,73.421L301.966,63.704L298.991,53.949L299.098,63.554L299.098,73.571C299.098,74.842 298.166,75.888 296.84,75.888C295.55,75.888 294.619,74.84 294.619,73.571L294.619,53.576C294.619,50.809 296.052,49.202 298.561,49.202C300.927,49.202 302.253,50.509 303.004,52.902L306.301,63.104L308.308,70.057L310.351,63.104L313.648,52.902C314.402,50.509 315.692,49.202 318.057,49.202C320.566,49.202 321.963,50.771 321.963,53.576L322,73.568L322,73.569Z"/>
        <path d="M88.282,66.36C88.284,67.024 88.029,67.663 87.57,68.143C87.122,68.612 86.501,68.879 85.852,68.882C85.202,68.88 84.581,68.613 84.132,68.143C83.674,67.663 83.419,67.024 83.421,66.361L83.421,43.84C83.421,43.17 83.677,42.53 84.133,42.057C84.581,41.587 85.203,41.32 85.852,41.318C86.496,41.318 87.115,41.584 87.57,42.057C88.028,42.537 88.284,43.176 88.282,43.839L88.282,66.36ZM87.439,81.965C87.117,82.298 78.077,90.111 61.503,90.111C44.929,90.111 35.949,82.34 35.567,82.007C35.325,81.795 35.127,81.537 34.984,81.249C34.54,80.356 34.658,79.282 35.286,78.507C35.698,78.008 36.295,77.696 36.94,77.642C37.58,77.591 38.213,77.805 38.701,78.236C38.841,78.34 46.918,85.132 61.483,85.132C76.048,85.132 84.184,78.298 84.265,78.236C84.752,77.811 85.39,77.599 86.035,77.648C86.682,77.701 87.282,78.011 87.7,78.507C88.11,79.003 88.314,79.647 88.27,80.297C88.228,80.943 87.937,81.549 87.459,81.986L87.439,81.965ZM34.703,43.84C34.74,43.17 35.031,42.54 35.513,42.092C35.988,41.646 36.624,41.412 37.275,41.444C37.875,41.479 38.44,41.744 38.863,42.186C39.286,42.629 39.536,43.218 39.565,43.84L39.565,66.32C39.565,66.988 39.309,67.629 38.853,68.102C38.404,68.571 37.783,68.838 37.134,68.84C36.485,68.838 35.864,68.571 35.415,68.102C34.956,67.622 34.701,66.983 34.703,66.319L34.703,43.84ZM46.898,38.84C46.934,38.17 47.225,37.54 47.707,37.092C48.182,36.646 48.818,36.412 49.469,36.444C50.069,36.479 50.635,36.744 51.058,37.186C51.481,37.629 51.731,38.218 51.759,38.84L51.759,72.173C51.761,72.837 51.506,73.476 51.047,73.956C50.599,74.425 49.978,74.692 49.329,74.694C48.679,74.692 48.058,74.426 47.609,73.956C47.151,73.476 46.896,72.837 46.898,72.173L46.898,38.84ZM59.152,37.59C59.152,36.921 59.408,36.28 59.864,35.808C60.313,35.338 60.934,35.071 61.584,35.069C62.228,35.069 62.846,35.335 63.302,35.808C63.758,36.28 64.014,36.922 64.014,37.59L64.014,73.84C64.014,74.509 63.758,75.15 63.302,75.622C62.854,76.092 62.232,76.359 61.583,76.361C60.934,76.359 60.312,76.092 59.864,75.622C59.406,75.142 59.15,74.503 59.152,73.84L59.152,37.59ZM71.206,38.84C71.206,38.171 71.462,37.53 71.918,37.058C72.367,36.588 72.988,36.321 73.638,36.319C74.282,36.319 74.9,36.585 75.356,37.058C75.812,37.53 76.068,38.172 76.068,38.84L76.068,72.173C76.07,72.837 75.815,73.476 75.356,73.956C74.907,74.425 74.286,74.692 73.637,74.694C72.988,74.692 72.367,74.425 71.918,73.956C71.459,73.476 71.204,72.837 71.206,72.173L71.206,38.84ZM88.946,25.09L34.14,25.09C32.944,25.082 31.758,25.319 30.656,25.785C29.543,26.256 28.536,26.945 27.694,27.811C26.841,28.689 26.166,29.725 25.708,30.86C25.245,32.006 25.005,33.229 25,34.465L25,90.715C25.005,91.951 25.246,93.174 25.709,94.32C26.167,95.455 26.842,96.491 27.695,97.369C28.537,98.235 29.544,98.924 30.657,99.395C31.759,99.861 32.945,100.098 34.141,100.09L88.945,100.09C90.14,100.098 91.324,99.862 92.425,99.397C93.536,98.927 94.542,98.241 95.384,97.377C96.237,96.501 96.913,95.468 97.372,94.335C97.836,93.191 98.079,91.969 98.086,90.735L98.086,34.465C98.081,33.231 97.842,32.009 97.38,30.865C96.923,29.731 96.25,28.696 95.398,27.819C94.558,26.953 93.554,26.264 92.444,25.791C91.344,25.324 90.161,25.086 88.966,25.091" style="fill-rule:nonzero;"/>
    </g>
</svg>
